!!!PDT:	1923
!!!LANG: Non-Tone
!!!LING_GROUP: Siouan
!!!REG: Dakotas
!!!COM: Anon.
!!!OTL: Song of Derision
!!!ODT: <1918//
!!!MPN: Obsitamato [Bear-on-the-Flat, Flat Bear]
!!!MLC: Fort Berthold Reservation, North Dakota, United States of America
!! Song was recorded during either the summer of 1912, 1915, or 1918.
!!!AGN: monody
!!!SOCIAL_FUNCTION: Mandan and Hidatsa Miscellaneous Songs
!!!AMT: irregular
!!!RWG: Transcribed pitches, durations, and meters are only approximate.
!! Drum Tempo: MM76
!! Drum-rhythm: (4 4 4 4)
**kern
*ICvox
*Imale
*clefF4
*k[b-e-a-d-g-c-]
*M3/4
*MM76
8e-
=1
4e-
8e-
8e-
16e-
8.B-
=2
4e-
4e-
8f
8e-
=3
4e-
8e-
8e-
16e-
8.B-
=4
8B-
8A-
4B-
4B-
*M2/4
=5
4e-
8e-
8e-
=6
8e-
8e-
16e-
8.B-
=7
8B-
8A-
8G-
8E-
=8
4B-
4A-
*M3/4
=9
8A-
8B-
8A-
8G-
4E-
*M2/4
=10
[2E-
*M3/4
=11
2E-_
8E-]
8B-
=12
4B-
8B-
8B-
16B-
8.G-
=13
4B-
4B-
8e-
8e-
=14
4e-
8e-
8e-
8e-
8B-
*M2/4
=15
8B-
8A-
8G-
8E-
=16
4B-
4A-
*M3/4
=17
8A-
8B-
8A-
8G-
4E-
*M2/4
=18
2E-
=19
4E-
4r
==
*-
!!!CNT: Mandan
!!!TXO: Mandan
!!!OCY: United States
!!!OCL: Frances Densmore
!!!YOR: Frances Densmore, "Mandan and Hidatsa Music",
!!!YOR: Bulletin 80, page 175, No. 107
!!!PPR: Smithsonian Institution, Bureau of American Ethnology
!!!PPR: Government Printing Office
!!!PDT: 1923
!!!PPP: Washington, DC, United States of America
!!!YEC: Electronic Copyright 2000 David Huron
!!!YER: August 2000
!!!YEN: United States of America
!!!ENC: David Huron
!!!RDT: August 18, 2000
!!!EEV: Release 1.0
!!!AIN: tom, vox
